X: 63
%
U:~=!turn!
T: MacIntosh of Macintosh
T: The Bridge of Inver
C:James Macintosh
O:Scotland
B:Keith Norman MacDonald : "The Skye collection of the best reels & strathspeys extant" : 1887
Z:Ralph Palmer
R:Reel
M:C
L:1/8
K:Bb
d | B2 FE DB,B,D | ECCE DFFA | B2 FE (DF)BF | GEcA B2 B :|
f | dBdf gabg | fdcB Acce | dBdf gabg | fdec B2 Bf |
dBdf gabg | fdcB Accd | BGFE DFBF | FEcA B2 B |]


